X: 12064
T: Esmerelda's
R: polka
M: 2/4
K: Gmajor
D2|"G"G2 GG G2B2|A2G4B2|A2G2 GABc|"D"d6 D2|
"G"G2GGG2B2|A2G4D2|"C"E2D2"D7"E2F2|"G"G6:|
|:B3/2c|"G"d2B2G2e2|"D7"c2A2F2d2|"G"B2G2E2c2|"D7"A2F2D2D2|
"G"G2GGG2B2|A2G4D2|"C"E2D2"D7"E2F2|"G"GG6:|

